icons/svg/flag-outline.svg

﻿<?xml version="1.0" encoding="utf-8"?>
<!DOCTYPE svg PUBLIC "-//W3C//DTD SVG 1.1//EN" "http://www.w3.org/Graphics/SVG/1.1/DTD/svg11.dtd">
<svg xmlns="http://www.w3.org/2000/svg" xmlns:xlink="http://www.w3.org/1999/xlink" version="1.1" baseProfile="full" width="24" height="24" viewBox="0 0 24.00 24.00" enable-background="new 0 0 24.00 24.00" xml:space="preserve">
	<path fill="#000000" fill-opacity="1" stroke-width="0.2" stroke-linejoin="round" d="M 14.5,6.00001L 20,6L 20,16L 13,16L 12.5,14L 7,14L 7,21L 5,21L 5,4L 14,4L 14.5,6.00001 Z M 7,6.00001L 7,12L 12.9999,12L 13.5,14L 18,14L 18,8L 14,8.00001L 13.5,6.00001L 7,6.00001 Z "/>
</svg>

<svg xmlns="http://www.w3.org/2000/svg" version="1.1" baseProfile="full" width="24" height="24" viewBox="0 0 24.00 24.00" xml:space="preserve"><path fill="#000" fill-opacity="1" stroke-width=".2" stroke-linejoin="round" d="M14.5 6H20v10h-7l-.5-2H7v7H5V4h9l.5 2zM7 6v6h6l.5 2H18V8h-4l-.5-2H7z"/></svg>
